svgs/sharp-light/shop-slash.svg

<svg xmlns="http://www.w3.org/2000/svg" viewBox="0 0 640 512"><!--! Font Awesome Pro 6.6.0 by @fontawesome - https://fontawesome.com License - https://fontawesome.com/license (Commercial License) Copyright 2024 Fonticons, Inc. --><path d="M608 224l32 0 0-32 0-16L544 0 99 0l40.5 32L525 32l83 152.2 0 7.8-48 0-217.8 0 40.5 32L544 224l0 127.3 32 25.3L576 224l32 0zM0 176l0 16 0 32 32 0 32 0 0 272 0 16 16 0 288 0 16 0 0-16 0-107.9L338.3 352 96 352l0-128 80.2 0-40.5-32L96 192l-32 0-32 0 0-7.8 28.2-51.7L34.7 112.3 0 176zM96 480l0-96 256 0 0 96L96 480zM32.5 10L19.9 .1 .1 25.3l12.6 9.9L607.8 502.2l12.6 9.9 19.8-25.2-12.6-9.9L32.5 10z"/></svg>

<svg xmlns="http://www.w3.org/2000/svg" viewBox="0 0 640 512"><!--! Font Awesome Pro 6.5.2 by @fontawesome - https://fontawesome.com License - https://fontawesome.com/license (Commercial License) Copyright 2024 Fonticons, Inc. --><path d="M608 224h32V192 176L544 0H99l40.5 32H525l83 152.2V192H560 342.2l40.5 32H544V351.3l32 25.3V224h32zM0 176v16 32H32 64V496v16H80 368h16V496 388.1L338.3 352H96V224h80.2l-40.5-32H96 64 32v-7.8l28.2-51.7L34.7 112.3 0 176zM96 480V384H352v96H96zM40.4 18L27.8 8.1 8.1 33.4l12.6 9.8L599.8 494.3l12.6 9.8 19.7-25.2L619.5 469 40.4 18z"/></svg>
